X: 3
T: Matt Peoples'
R: reel
M: 4/4
L: 1/8
K: Dmaj
|: ~F2Bc dABA | d2BA FE~E2 | ~F2Bc d2BA | fcfe dBB2 :|
|| ~a2df adbd | ~a2de fe~e2 | ~a2df bdad | egfe dBB2 |
~a2df adbd | ~a2de feed | fdad bdad | ~e2fe dB~B2 ||


Tune 2980	Setting 25448

